X: 10051
M: 2/4
L: 1/8
K: G
V: 1 staves=3
d |\
g2 fe | d2 ef/g/ | BB cA | G3 d |\
g2 a/g/f/e/ | d2 ef/g/ | BB cA | G3 :|
|: d>c |\
g2 a/g/f/e/ | d2 ef/g/ | BB cA | G3 :|
V: 2
d |\
|: d2 |\
V: 3 clef=bass middle=d
d' |\
g2 gg | g2 cc | d2 dd | G3 d' |\
g2 gg | g2 cc | d2 dd | G3 :|
|: d2 |\
gg gg | g2 gg | gg gg | g2 cd |\
g2 gg | g2 cc | dd dd | G3 :|


